X:19
T:Sr. Thomas Sleeper. Ca1758.043
M:6/8
L:1/8
Q:3/8=120
B:Cahusac,T. 24 Country Dances for the Year 1758
Z:vmp.Mike Hicken 2015 www.village-music-project.org.uk
K:D
D|D2F F2A|dfe {e}d2B|Add Gdd|FdF EDC|
D2F F2A|dfe e2d|cBA EF^G|AEC A,2 :|
|:A|A2c c2e|afg afg|A2c c2e|gef g2f-|
fed cBA|BAG FED|CDE A,2C|D3D2 "*" :|
W:
W: The 1st. Cu. heys contrary sides
W:.|  then on your own sides :|  gallop
W: down and up and cast off & Right
W: and Left :|

